assets/images/partners/partner-5.svg

<svg width="102" height="24" viewBox="0 0 102 24" fill="none" xmlns="http://www.w3.org/2000/svg">
<path d="M9.63684 0.197235V0.905982C8.80587 0.997434 8.24439 1.13461 7.90751 1.29465C7.57062 1.45469 7.39095 1.8205 7.39095 2.3692C7.39095 2.62069 7.43587 2.87219 7.50325 3.10082C7.57062 3.32944 7.68292 3.67238 7.86258 4.12964L12.8709 16.3841L17.1157 5.54713C17.3178 5.0213 17.4975 4.44972 17.6771 3.87815C17.8568 3.28372 17.9466 2.84933 17.9466 2.55211C17.9466 1.93481 17.6547 1.47755 17.0933 1.2032C16.7339 1.04316 16.2622 0.951709 15.6558 0.905982V0.197235H22.2812V0.905982C21.5176 0.974571 20.9561 1.22607 20.6193 1.70618C20.2824 2.16344 19.7883 3.21513 19.137 4.88411L12.3095 22.2599C12.1747 22.557 12.0849 22.7629 11.995 22.8772C11.9052 22.9915 11.8154 23.0601 11.6806 23.0601C11.5234 23.0601 11.3887 22.9686 11.2764 22.7857C11.164 22.6028 11.0518 22.3742 10.917 22.0998L3.66277 4.404C3.07884 2.96364 2.44998 2.0034 1.79868 1.47755C1.39442 1.18034 0.832941 0.997434 0.0693359 0.905982V0.197235H9.63684ZM31.0177 0.128647V15.561C31.0177 16.6585 31.1749 17.5273 31.467 18.1903C32.0508 19.402 33.1514 20.0193 34.7235 20.0193C35.8015 20.0193 36.8571 19.6535 37.9126 18.9448C38.4966 18.5561 39.1029 17.9845 39.7094 17.2758V4.06106C39.7094 2.8036 39.4623 2.0034 38.9906 1.61473C38.5191 1.22607 37.5758 0.997434 36.1609 0.905982V0.105784H43.7295V17.2758C43.7295 18.3275 43.9092 19.0591 44.291 19.4706C44.6728 19.8821 45.4589 20.0421 46.6492 19.9965V20.7052C45.7958 20.9338 45.1669 21.1167 44.7627 21.231C44.3584 21.3453 43.6846 21.574 42.7413 21.8712C42.3371 22.0084 41.4611 22.3513 40.0912 22.9C40.0013 22.9 39.9789 22.8543 39.9564 22.7857C39.934 22.7171 39.934 22.6257 39.934 22.5114V18.5561C38.8559 19.8593 37.8678 20.8195 36.9694 21.4597C35.6219 22.4199 34.1845 22.9 32.6797 22.9C31.3098 22.9 30.0072 22.3971 28.7719 21.4139C27.5367 20.4308 26.9078 18.7847 26.9078 16.4756V3.9696C26.9078 2.68928 26.6607 1.8205 26.1217 1.3861C25.7848 1.11175 25.0662 0.928846 23.9656 0.814532V0.105784H31.0177V0.128647ZM51.972 3.30658C53.9259 1.13461 56.4413 0.0600586 59.5182 0.0600586C62.5725 0.0600586 65.1105 1.08889 67.1317 3.14654C69.1306 5.20419 70.1412 7.92487 70.1412 11.3543C70.1412 14.4865 69.1755 17.23 67.2216 19.5392C65.2677 21.8483 62.7523 23.0143 59.6529 23.0143C56.6883 23.0143 54.173 21.8941 52.1067 19.6764C50.0405 17.4586 49.0298 14.6465 49.0298 11.2857C49.0298 8.13063 49.9956 5.47855 51.972 3.30658ZM55.6552 2.64356C54.1055 4.08392 53.3195 6.57596 53.3195 10.0968C53.3195 12.909 53.9483 15.5381 55.2061 17.9616C56.4637 20.4079 58.1931 21.6197 60.4165 21.6197C62.1683 21.6197 63.4934 20.7966 64.4367 19.1734C65.38 17.5501 65.8515 15.4011 65.8515 12.7718C65.8515 10.0282 65.2452 7.46761 64.0549 5.04416C62.8645 2.62069 61.1127 1.40896 58.8444 1.40896C57.6091 1.40896 56.5536 1.8205 55.6552 2.64356ZM72.477 22.0998C73.9368 21.9855 74.9026 21.7111 75.3741 21.2996C75.8458 20.9109 76.0929 20.065 76.0929 18.7618V7.81055C76.0929 6.23302 75.9357 5.08988 75.6436 4.404C75.3517 3.71812 74.8127 3.37516 74.0266 3.37516C73.8694 3.37516 73.6448 3.39803 73.3978 3.44376C73.1283 3.48949 72.8588 3.53521 72.5668 3.6038V2.82646C73.4652 2.50638 74.4084 2.18631 75.3517 1.86623C76.3175 1.52328 76.9688 1.29465 77.3506 1.13461C78.1367 0.837394 78.9676 0.494453 79.8211 0.105784C79.9333 0.105784 80.0007 0.15151 80.0232 0.242961C80.0456 0.334413 80.068 0.517315 80.068 0.791669V4.79267C81.0563 3.3523 82.022 2.20917 82.9428 1.40896C83.8636 0.608766 84.8294 0.197235 85.8175 0.197235C86.6037 0.197235 87.255 0.448726 87.749 0.951709C88.2431 1.45469 88.4902 2.07198 88.4902 2.82646C88.4902 3.48949 88.3106 4.06106 87.9288 4.51831C87.547 4.97556 87.0753 5.20419 86.4914 5.20419C85.9074 5.20419 85.3235 4.92984 84.7171 4.35826C84.1332 3.7867 83.6615 3.51235 83.3246 3.51235C82.7856 3.51235 82.1343 3.9696 81.3258 4.86125C80.5397 5.77577 80.1355 6.71314 80.1355 7.67338V18.5103C80.1355 19.8821 80.4499 20.8195 81.1012 21.3453C81.73 21.8712 82.808 22.1227 84.2904 22.0998V22.8772H72.477V22.0998ZM97.4738 0.197235C97.6759 0.128647 97.6534 0.425864 97.6534 0.563041V17.8702C97.6534 19.6992 97.878 20.8424 98.3047 21.2996C98.754 21.7569 99.7197 22.054 101.269 22.1912V22.9H89.7254V22.1912C91.4324 22.0313 92.4879 21.734 92.9371 21.3225C93.3862 20.8881 93.5884 19.7678 93.5884 17.8931V6.23302C93.5884 5.20419 93.5209 4.47259 93.3862 4.08392C93.1392 3.4209 92.6676 3.10082 91.9039 3.10082C91.7243 3.10082 91.5671 3.12368 91.4098 3.14654C91.2526 3.16941 90.7811 3.30658 89.9949 3.53521V2.59783C89.9949 2.57497 93.3862 1.50042 97.4738 0.197235Z" fill="#9C9C9C"/>
</svg>

<svg xmlns="http://www.w3.org/2000/svg" width="102" height="24" fill="none" xmlns:v="https://vecta.io/nano"><path d="M9.637.197v.709c-.831.091-1.392.229-1.729.389s-.517.526-.517 1.075a2.62 2.62 0 0 0 .112.732l.359 1.029 5.008 12.254 4.245-10.837.561-1.669c.18-.594.27-1.029.27-1.326a1.41 1.41 0 0 0-.853-1.349c-.359-.16-.831-.251-1.437-.297V.197h6.625v.709c-.764.069-1.325.32-1.662.8-.337.457-.831 1.509-1.482 3.178L12.31 22.26c-.135.297-.225.503-.315.617s-.18.183-.314.183c-.157 0-.292-.091-.404-.274s-.225-.412-.359-.686L3.663 4.404c-.584-1.44-1.213-2.401-1.864-2.926C1.394 1.18.833.997.069.906V.197h9.568zM31.018.129v15.432c0 1.098.157 1.966.449 2.629.584 1.212 1.684 1.829 3.257 1.829 1.078 0 2.134-.366 3.189-1.075.584-.389 1.19-.96 1.797-1.669V4.061c0-1.257-.247-2.058-.719-2.446s-1.415-.617-2.83-.709v-.8h7.569v17.17c0 1.052.18 1.783.561 2.195s1.168.572 2.358.526v.709l-1.886.526-2.021.64-2.65 1.029c-.09 0-.112-.046-.135-.114s-.022-.16-.022-.274v-3.955c-1.078 1.303-2.066 2.263-2.965 2.904-1.348.96-2.785 1.44-4.29 1.44-1.37 0-2.672-.503-3.908-1.486s-1.864-2.629-1.864-4.938V3.97c0-1.28-.247-2.149-.786-2.583-.337-.274-1.056-.457-2.156-.572V.106h7.052v.023zm20.954 3.178C53.926 1.135 56.441.06 59.518.06c3.054 0 5.592 1.029 7.613 3.086 1.999 2.058 3.01 4.778 3.01 8.208 0 3.132-.966 5.876-2.92 8.185s-4.469 3.475-7.569 3.475c-2.965 0-5.48-1.12-7.546-3.338s-3.077-5.03-3.077-8.391c0-3.155.966-5.807 2.942-7.979zm3.683-.663c-1.55 1.44-2.336 3.932-2.336 7.453 0 2.812.629 5.441 1.887 7.865 1.258 2.446 2.987 3.658 5.21 3.658 1.752 0 3.077-.823 4.02-2.446s1.415-3.772 1.415-6.402a17.26 17.26 0 0 0-1.797-7.728c-1.19-2.423-2.942-3.635-5.211-3.635a4.55 4.55 0 0 0-3.189 1.235zM72.477 22.1c1.46-.114 2.426-.389 2.897-.8.472-.389.719-1.235.719-2.538V7.811c0-1.578-.157-2.721-.449-3.407s-.831-1.029-1.617-1.029c-.157 0-.382.023-.629.069l-.831.16v-.777l2.785-.96 1.999-.732L79.821.106c.112 0 .18.046.202.137s.045.274.045.549v4.001c.988-1.44 1.954-2.584 2.875-3.384S84.829.197 85.818.197c.786 0 1.438.251 1.931.754s.741 1.12.741 1.875c0 .663-.18 1.235-.561 1.692s-.853.686-1.437.686-1.168-.274-1.774-.846c-.584-.572-1.056-.846-1.392-.846-.539 0-1.19.457-1.999 1.349-.786.915-1.19 1.852-1.19 2.812V18.51c0 1.372.314 2.309.966 2.835.629.526 1.707.777 3.189.754v.777H72.477V22.1zM97.474.197c.202-.069.18.229.18.366V17.87c0 1.829.225 2.972.651 3.429.449.457 1.415.754 2.964.892v.709H89.725v-.709c1.707-.16 2.763-.457 3.212-.869.449-.434.651-1.555.651-3.429V6.233c0-1.029-.067-1.76-.202-2.149-.247-.663-.719-.983-1.482-.983-.18 0-.337.023-.494.046s-.629.16-1.415.389v-.937c0-.023 3.391-1.097 7.479-2.401z" fill="#9c9c9c"/></svg>
